X: 305642
M: 6/8
L: 1/8
K: Bb
[|\
"^>"B3 "^>"B3 | Bdc BAG | FBc dcB | Acc c2z |\
d |\
(dc)c cee | (ed)d dff | (fe)e egg | (gf)f fed |\
"^>"B3 "^>"B3 | Bdc BAG | FBc dcB | cBB B2 |]
g |\
fBB dBB | fBB Bbg | fed dcB | Acc cde |\
fBB cBB | fBB g2f/e/ | def fga | bBB B2 |]
b |\
bag gdd | (ed)c B2A | GAB Bcd dgf f2a |\
bag gdd | edc B2A | GBc Bcd | dgf f2g |
fBB cAB | fAB Bbg | fed dcB | ABd dde |\
fBB cBB | fBB g2f/e/ | def fga | bBB "^D.C."B2 |]


